X:5490
T:Frank Roche's Favourite
M:4/4
L:1/8
R:Hornpipe
Z:Transcribed from Matt Molloy's "Stony Steps" album by Marja Hendriks
K:G
G2G>B A>GE2|c>Bc>e d>Bd<g|B>AB>d (3cBA (3BAG|(3EFG (3FGA (3GBG (3AFD|
G2G>B A>GE2|c>Bc>e d>Bd<g|B>AB>d (3cBA (3BAG|(3EFG (3FGA G4:|
d>gB>g d>gB>g|(3gab (3agf e4|(3gab (3agf (3gfe (3dcB|(3cde (3def (3gdc (
3BAG|
d>gB>g d>gB>g|(3gab (3agf e4|(3gab (3agf (3gfe (3dcB|(3cde (3def (3gdc (
3BcA:|
